X:1
T: She's Bonnie an' Braw
C:
R:Jig
Q:180
K:A
M:6/8
L:1/16
E2|:c2B2A2 A2G2F2|E4A2 A4A2|F2G2A2 A2B2c2|B6-B4E2|
c2B2A2 A4GA|F2A2A2 A4A2|G2F2E2 E2F2G2|1A6-A4E2:|2A6-A4GA|
|:B2e2e2 d2c2B2|G2B4 B4BA|G2A2B2 A2G2F2|E6 e4e2|
f2e2d2 c2B2A2|G2F2F2 F4A2|G2F2E2 E2F2G2|1A6-A4GA|2A6-A4||
